logos/createjs.svg

<?xml version="1.0" encoding="UTF-8" standalone="no"?>
<svg width="256px" height="293px" viewBox="0 0 256 293" version="1.1" xmlns="http://www.w3.org/2000/svg" xmlns:xlink="http://www.w3.org/1999/xlink" preserveAspectRatio="xMidYMid">
    <g>
        <path d="M252.077707,70.214643 L131.902733,1.04251093 C129.487811,-0.347503642 126.512189,-0.347503642 124.097267,1.04251093 L3.91968461,70.214643 C1.49433086,71.6098734 0,74.1969174 0,76.9952019 L0,215.295132 C0,218.093416 1.49433086,220.68046 3.91968461,222.07569 L124.097267,291.245215 C126.512189,292.635229 129.487811,292.635229 131.902733,291.245215 L252.080315,222.07569 C254.505669,220.68046 256,218.093416 256,215.295132 L256,76.9952019 C256,74.1943095 254.505669,71.6098734 252.077707,70.214643 L252.077707,70.214643 Z M118.839726,45.3821501 C118.839726,45.8489655 118.591975,46.2792702 118.187749,46.5113739 L75.1990057,71.2812771 C74.3279647,71.7819953 74.3279647,73.0390066 75.1990057,73.5423327 L118.185141,98.2835488 C118.589367,98.5156525 118.839726,98.9459572 118.839726,99.4127726 L118.839726,117.389077 C118.839726,118.393122 117.754836,119.019019 116.886403,118.518301 L38.7535018,73.5501564 C37.8824608,73.0494382 37.8824608,71.7924269 38.7535018,71.2891008 L116.883795,26.2714057 C117.752228,25.7706875 118.839726,26.3991932 118.839726,27.4006296 L118.839726,45.3821501 L118.839726,45.3821501 Z M217.24389,73.5501564 L139.048399,118.55742 C138.179966,119.058138 137.095077,118.429632 137.095077,117.428196 L137.095077,99.4518912 C137.095077,98.9850758 137.345436,98.5547711 137.749661,98.3226674 L180.800994,73.5449406 C181.672035,73.0442224 181.672035,71.7872111 180.800994,71.283885 L137.749661,46.4774711 C137.345436,46.2453674 137.097684,45.8150627 137.097684,45.3482473 L137.097684,27.3667268 C137.097684,26.3626825 138.182574,25.7367847 139.053615,26.2375029 L217.249106,71.2917087 C218.114931,71.7924269 218.114931,73.0494382 217.24389,73.5501564 L217.24389,73.5501564 Z" fill="#405261"></path>
    </g>
</svg>

<svg preserveAspectRatio="xMidYMid" viewBox="0 0 256 293" xmlns="http://www.w3.org/2000/svg">
  <path fill="#405261" d="M252.078 70.215 131.903 1.043a7.826 7.826 0 0 0-7.806 0L3.92 70.215A7.823 7.823 0 0 0 0 76.995v138.3a7.823 7.823 0 0 0 3.92 6.78l120.177 69.17a7.826 7.826 0 0 0 7.806 0l120.177-69.17a7.823 7.823 0 0 0 3.92-6.78v-138.3c0-2.8-1.494-5.385-3.922-6.78ZM118.84 45.382a1.3 1.3 0 0 1-.652 1.13l-42.989 24.77a1.305 1.305 0 0 0 0 2.26l42.986 24.742c.404.232.655.662.655 1.129v17.976a1.302 1.302 0 0 1-1.954 1.13L38.754 73.55a1.305 1.305 0 0 1 0-2.26l78.13-45.019c.868-.5 1.956.128 1.956 1.13v17.981Zm98.404 28.168-78.196 45.007a1.303 1.303 0 0 1-1.953-1.129V99.452c0-.467.25-.897.655-1.13l43.05-24.776c.871-.5.871-1.758 0-2.261l-43.05-24.808a1.3 1.3 0 0 1-.652-1.129V27.367a1.304 1.304 0 0 1 1.956-1.13l78.195 45.055c.866.5.866 1.757-.005 2.258Z"/>
</svg>
